X:1
T:Unforgettable
C:1951 - Irving Gordon
Z:www.realbook.site
L:1/4
M:4/4
I:linebreak $
K:F
V:1 treble nm=" " snm=" "
V:1
|:"F" C D D/ E E/- | E2 (3C D F |"Fdim/Ab" E4- | E3 z |$"Gm7/C" F G G/ A A/- | A2 (3F G B | %6
"G7" A4- | A3 z |$"Cm7" B c c B |"Ebm7" B c/_d/- d/c/ B |"Bb" F G"Fm/Ab" G F | %11
"G7" F G/A/- A/G/ F |1$"C7" D D G D- | D3 _E | =E E B E- | E3 z :|2$"C7" C D D C | %17
"F7" C D/F/- F/D/ C |"Bb" B,4 ||"Gm7" z4"C7" |] %20

